X:1
T:Title
%%score ( 1 2 ) { 3 | 4 }
L:1/8
Q:1/4=93
M:3/4
K:D
V:1 treble nm="Grand Piano, Soprano"
V:2 treble 
V:3 bass nm="Choir Pad, Fields Are White (Sheeleigh)"
V:4 bass 
V:1
 DF- F/D/ A3 | [GB][GA]- [GA]/[EG]/ [EG]3- | [EG] [EG]2 [EG]3 | [CE][CB]- [CB]/[CA]/ [DF]3 | %4
w: By~James~Holmes~Rosecrans,~1902 * * * *||||
 DF- F/A/ [Fd]3 | [Fc][Ge]- [Ge]/[Gd]/ [GB]3- | [GB] [=Fd]2 [^FA]3 | [DF][DF]- [DF]/[CE]/ D3 | %8
w: ||||
[M:4/4] DD- D/D/[GB]- [GB]4- | [GB]/[Bd]/[Ac]- [Ac]/[GB]/[FA]- [FA]4- | %10
w: ||
 [FA] [FA]2 [EA]- [EA]2 [EG][CE]- | [CE] [GB]2 A- A-[DA]- [DA-]/[FA-]/[FA] | DD- D/D/[GB]- [GB]4- | %13
w: |||
 [GB]/[Bd]/[Ac]- [Ac]/[GB]/[FA]- [FA]4- | [FA] [DF]2 [CA]- [CA]2 [CE][EG]- | [EG]C-[CE]D- D4- | %16
w: |||
 D2 z2 z4 |] %17
w: |
V:2
 x6 | x6 | x6 | x6 | x6 | x6 | x6 | x6 |[M:4/4] x8 | x8 | x8 | z2 z F- F z z2 | x8 | x8 | x8 | %15
 z F z2 z4 | x8 |] %17
V:3
 D,F,- F,/D,/ A,3 | DC- C/A,/ A,3- | A, A,2 A,3 | A,A,- A,/A,/ A,3 | D,F,- F,/A,/ A,3 | %5
 A,B,- B,/B,/ D3- | D B,2 D3 | A,A,- A,/G,/ F,3 |[M:4/4] z4[K:treble] DD- D/D/D- | %9
 D2 z2 DD- D/D/D- | D D2 C- C2 A,A,- | A, C2 D- DD- D/D/D- | D2 z2 DD- D/D/D- | D2 z2 DD- D/D/D- | %14
 D[K:bass] A,2 A,- A,2 A,A,- | A,A,G,F,- F,4- | F,2 z2 z4 |] %17
V:4
 z6 | D,E,- E,/E,/ E,3- | E, A,,2 A,,3 | A,,A,,- A,,/A,,/ D,3 | z2 z D,3 | D,G,- G,/G,/ G,3- | %6
 G, ^G,2 A,3 | z A,,- A,,/A,,/ D,3 |[M:4/4] z4 G,G,- G,/G,/G,- | G,2 z2 D,F,- F,/A,/D,- | %10
 D, D,2 A,,- A,,2 A,,A,,- | A,, A,,2 D,- D,F,- F,/A,/D,- | D,2 z2 G,G,- G,/G,/G,- | %13
 G,2 z2 D,D,- D,/D,/D,- | D, D,2 A,,- A,,2 A,,A,,- | A,, A,,2 D,- D,4- | D,2 z2 z4 |] %17

